X: 6958
T: Chew The Wood
R: hornpipe
M: 4/4
K: Gmajor
DGGF G3 A|B3A G4|DGGF G2GD|EDB,G,A,4|
DGGF G2GA|B2Bd e4|edBA BAGF DEFD G2:|
E4 EGFD|E4 B2AF|D2B,D G,DB,D|E2 EG BAFD|
E4 EGFD|E4 B2Bd|edBA BAGF DEFD G2:|
DBBA B3A|B3A G2GF|EccB c2Ec|c2BG E4|
Add^c d2 de|f3a g2 gf|gedA BAGF DEFD G2:|

